X: 7
M: 3/4
L: 1/16
K: C
[|\
E3D C4 F4 | EFG2 D4 F4 |\
E3D C4 E4 | D8 A,4 ||\
ed c4 dc B4 | cB A4 BA G4 |\


